X: 39807
T: There And Back
R: jig
M: 6/8
K: Gminor
|:G,B,D GBd|FDG FDG|G,B,D GBd|cBA GAF|G,B,D GBd|
FDG FDG|1 BAG AGF|cBA GFD:|2 BAG cBA|dcB AGF||
|:G2 g gfd|=ecG =EGE|dfg gfd|gf=e dcA|
dfg gfd|=ecG =EGE|G,B,D GBd|cAF GFD:|
|:bgg dgg|bgg dgg|aff dff|aff dff|
bgg dgg|bgg d2 d|cdc BAG|FGG G3:|
|:gfd cAG|dff cff|gfd cAG|cdA cdA|
gfd cAG|FGG DGG|G,B,D GBd|cAF GFD:|

